X: 305565
T: FLIGHT OF FANCY
C:
%R: jig
B: Elias Howe "The Musician's Companion" Part 3 1844 p.63 #1
S: http://imslp.org/wiki/The_Musician's_Companion_(Howe,_Elias)
S: https://archive.org/stream/firstthirdpartof03howe/#page/66/mode/1up
Z: 2015 John Chambers <jc:trillian.mit.edu>
M: 6/8
L: 1/8
K: F
% - - - - - - - - - - - - - - - - - - - - - - - - -
a/g/ |\
(f<a)c (d<f)A | GFG (F<A)C | DCD FGA | (A<G)G G2 a/g/ |\
(f<a)c (d<f)A | GFG (F<A)C | DCD F<GA | AGF F2 :|
|: a/g/ |\
(f<a)c (d>f)e | dBg G2G | Ggg {a}gfg | bag fga |\
b>ag a>gf | g>fe f>ed | (c<b)a gfe | f2f "^D.C."f2 :|
% - - - - - - - - - - - - - - - - - - - - - - - - -


